X: 1
T: Sally Johnson
%O: from Viola Ruth
B: Lee Owens "Advanced Square Dance Figures of the West and Southwest" p.54
R: reel
Z: 2010 John Chambers <jc:trillian.mit.edu>
M: 2/4
L: 1/16
K: G
((3EFvG |\
"G"B3)uB vAAGG | vDGBd e(ufg2) | B3B AAGG | "D7"DEGB A2MG-uMG |
"G"vB3B AAGG | DGBd e(fg2) | "D"gedB AGED | DEGB "A"AMG-MG ||
"G"vg2(ga) b2(ba) | "Em"gagd (veug3) | "G"g2(ga) b2(ba) | "Em"gagd veud3 |
"G"g2(ga) b2(ba) | "Em"gagd veug3 | "G"B2({c}BA) G2D2 | "D7"EGGB "G"(vAG)uG2 ||
"Rocking bow"v[DB,][DB,][DB,][DB,] [DA,][DA,][DG,][DG,] | v[DB,][DB,]DD (EFG2) |\
"Rocking bow"v[DB,][DB,][DB,][DB,] [DA,][DA,][DG,][DG,] | "D"BcB(^G A4 ) |
"Rocking bow"v[DB,][DB,][DB,][DB,] [DA,][DA,][DG,][DG,] | v[DB,][DB,]DD (uEFG2) |\
"D7"vgedB AGED | DEGB vA"G"uG3 ||
"Em"uB2({c}uBA) vGEFG | Bdef g4 | B2({c}BA) GEFG | "D7"EGG(uA "G"G4) |
"Em"B2({c}BA) GEFG | Bdef g4 | B2({c}BA) GEFG | "D7"EGGvA "G"uG2 |]

%%sep 1 1 500

